libs/ui/packages/crypto-icons/src/svg/BTCP.svg

<svg width="24" height="24" viewBox="0 0 24 24" fill="none">
<path d="M15.5363 5.4L15.0113 7.5315C16.6343 8.0985 17.8291 8.949 17.5958 10.524C17.5283 11.0025 17.3633 11.4818 17.0228 11.844C16.7311 12.1567 16.2751 12.3225 15.8858 12.45C15.419 12.6079 14.9309 12.6936 14.4383 12.7042C14.1083 12.7042 13.7873 12.6945 13.4573 12.6652C12.9233 12.6255 12.3788 12.5768 11.8546 12.4598C11.6896 12.4208 11.5336 12.3915 11.3881 12.3517L10.6786 15.2167L10.2608 16.7812L9.73581 18.9233L8.44431 18.6007L8.97906 16.4393C8.67756 16.3613 8.36631 16.2735 8.05581 16.1947L6.37506 15.7748L7.01631 14.2972C7.01631 14.2972 7.96881 14.5523 7.95831 14.5328C8.32806 14.6205 8.48331 14.376 8.55081 14.22L9.27981 11.286L9.61956 9.927L10.0088 8.3625C10.0276 8.08875 9.93081 7.737 9.40581 7.6095C9.42531 7.59975 8.46381 7.37475 8.46381 7.37475L8.80356 5.9865L10.5811 6.4365C10.8541 6.504 11.1256 6.56325 11.4076 6.6315L11.9326 4.5L13.2241 4.8225L12.7096 6.915C13.0493 6.99375 13.3996 7.07175 13.7393 7.1595L14.2441 5.07675L15.5363 5.4ZM15.4298 13.125C15.7891 13.0658 16.2263 12.9195 16.5368 12.792C16.5466 12.7822 16.5668 12.7823 16.5758 12.7725C17.2463 13.3688 17.5666 14.337 17.1293 15.579C16.4393 17.5935 14.7788 17.7592 12.5828 17.3392L12.0488 19.5L10.7663 19.1775L11.2613 17.1143L11.2808 17.046L11.6701 15.4613C12.8161 15.7162 14.3611 15.882 14.6521 14.6887C14.8081 14.0535 14.5066 13.5937 14.0206 13.2615L14.5261 13.2315C14.8861 13.2128 15.0698 13.1835 15.4298 13.1243V13.125ZM15.0503 10.5037C15.4298 8.9685 13.0778 8.63625 12.3503 8.44125L11.7083 11.0415C12.4373 11.2275 14.6911 11.9707 15.0503 10.5037Z" fill="#272D63"/>
</svg>

<svg width="24" height="24" viewBox="0 0 24 24" fill="none"><path fill="#272d63" d="m15.536 5.4-.525 2.132c1.623.566 2.818 1.417 2.585 2.992-.068.479-.233.958-.573 1.32-.292.313-.748.479-1.137.606a4.8 4.8 0 0 1-1.448.254c-.33 0-.65-.01-.98-.039-.535-.04-1.08-.088-1.603-.205-.165-.04-.321-.069-.467-.108l-.71 2.865-.417 1.564-.525 2.142-1.292-.322.535-2.162c-.301-.078-.613-.166-.923-.244l-1.68-.42.64-1.478s.953.255.942.236c.37.088.525-.157.593-.313l.729-2.934.34-1.359.389-1.564c.019-.274-.078-.626-.603-.753.02-.01-.942-.235-.942-.235l.34-1.388 1.777.45c.273.067.545.126.827.194l.525-2.131 1.291.322-.514 2.093c.34.079.69.157 1.03.245l.504-2.083zm-.106 7.725c.36-.06.796-.206 1.107-.333.01-.01.03-.01.039-.02.67.597.99 1.565.553 2.807-.69 2.014-2.35 2.18-4.546 1.76l-.534 2.161-1.283-.323.495-2.063.02-.068.39-1.585c1.145.255 2.69.421 2.981-.772.156-.636-.145-1.095-.631-1.428l.505-.03a7 7 0 0 0 .904-.107zm-.38-2.621c.38-1.535-1.972-1.868-2.7-2.063l-.642 2.6c.73.186 2.983.93 3.342-.537"/></svg>
